X:9
T:Manchester Hornpipe (Craig 9)
M:C
L:1/8
B:Empire Violin Collection of Hornpipes
H:Published by Thomas Craig
H:Music Publisher, &c.
H:George Street, Aberdeen, N.B.
Z:Peter Dunk December 2011
R:hornpipe
Q:1/4=140
K:D
(3ABc | d>cd>A F>Ad>f | e>dc>B A2g2 | f>ga>g b>ge>c | d>cd>f e>c (3ABc |!
d>cd>A F>Ad>f | e>dc>B A2g2 | f>ga>g b>ge>c | d2f2d2 :|!
|:(fg) | a>fa>f d>fa>f | b>gb>g e>fg>e | a>fa>f b>ag>f | e>dc>B A>gf>e |!
d>cd>A F>Ad>f  | e>dc>B A>ce>g | f>ga>f b>ge>c | d2f2d2 H:|

